X:1
T:Avant 2 de La Mzire
C:Traditionnel Bretagne, fichier abc : Bernard Loffet
L:1/8
Q:330
M:6/8
K:C
 z3 GAB | [c2C,,2][eC,] [d2G,,2][gC,] | [g2C,,2]C, [fF,,]e[dF,] | [e2C,,2][cC,] [d2G,,2][BG,] | \
 [c2C,,2]C, [GC,,]A[BG,] | [c2C,,2][eC,] [d2G,,2][gC,] | [g2C,,2]C, [fF,,]e[dF,] | \
 [e2C,,2][cC,] [d2G,,2][BG,] | [c2C,,2]C, [cC,,]B[cC,] | [A2F,,2]F, [AF,,]B[AF,] | \
 [G2C,,2]C, [GC,,]A[BG,] | [cC,,]B[cC,] [dG,,]c[dG,] | [e2C,,2][cC,] [cC,,]B[cC,] | \
 [A2F,,2]F, [AF,,]B[AF,] | [G2C,,2]C, [GC,,]A[BG,] | [cC,,]B[cC,] [d2G,,2][BG,] | \
 [c2C,,2]C,4 | \
W:Created with TablEdit http://www.tabledit.com/ by Bernard Loffet
